X:43
M:6/8
L:1/8
Q:3/8=80
K:A
d>ed c<e z/||c/|Bce f>aa|fed e>dc|d>ed c>ea|f>ed (c<B) z/||

